!!!SOCIAL_FUNCTION:	songs of the heyo'ka
!!!PDT:	1918

Specific Region: Dakotas, Minnesota, Montana, Nebraska
!!!REG: Dakotas and Montana
!!!LING_GROUP: Siouan
!!!LANG: Tone
!!!OTL@ENG: Before the Gathering of the Clouds
!!!ONM: No. 38
**kern
*Imale
*clefF4
*k[f#c#g#d#a#]
*M2/4
*MM100
8d#
8d#
4d#
=1||
*M3/4
4d#
8c#
16c#
16c#
4c#
=2||
*M2/4
8c#
8B
4G#
=3
8d#
8d#
(16d#
8.B)
=4||
*M3/4
4B
8B
16G#
16G#
4G#
=5
8G#
8F#
4D#
8.D#
16D#
=6||
*M2/4
8G#
8G#
8.G#
16B
=7
(16B
8.G#)
4G#
=8||
*M3/4
4F#
4F#
8F#
8D#
=9||
*M2/4
8D#
8D#
8.D#
16D#
=10
2D#
=11
4.D#
16d#
16B
=12
8.B
16B
8B
8B
=13
8B
8G#
8d#
8d#
=14||
*M3/4
(16d#
8.B)
4B
8.B
16G#
=15
4G#
4G#
8.G#
16F#
=16||
*M2/4
8.D#
16D#
4D#
=17
8G#
8G#
8.G#
16B
=18
(16B
8.G#)
8.G#
16G#
=19||
*M3/4
4F#
4F#
8F#
16D#
16D#
=20||
*M2/4
16D#
8.D#
8.D#
16D#
=21
2D#
==
*-
!!!CNT: Native American -- Sioux
!!!MRD: 1911/07//-1914///
!!!OCL: Frances Densmore
!!!YOR1: Teton Sioux Music, Bulletin 61,
!!!YOR2: Bureau of American Ethnology, Smithsonian Institution
!!!PPR: Government Printing Office
!!!PPP: Washington, D.C.
!!!PDT: 1918///
!!!ENC: Craig Stuart Sapp
!!!END: 2002/03/25/
!!!EEV: 2002/03/31/
!!!AGN: Ceremonial Song/Song of the Heyoka
!!!MPN@@SIO: Ishn'la-wicha'
!!!MPN@ENG: Lone Man
!!!TXO: Teton Sioux
!!!MLC: Standing Rock Reservation, South Dakota, United States of America
!!!ARL: 45.9/-100.7#
!!!catalog: Catalogue No. 493
!!!PPG: 162
!!!EFL: 38/245
!!!VTS: 2274823599
